findly-builder/apps/searchassist/src/assets/images/markup/list-unordered.svg

<svg width="10" height="8" viewBox="0 0 10 8" fill="none" xmlns="http://www.w3.org/2000/svg">
<path fill-rule="evenodd" clip-rule="evenodd" d="M1.33333 1.2028C1.33333 1.38383 1.19342 1.53059 1.02083 1.53059H0.3125C0.139911 1.53059 0 1.38383 0 1.2028C0 1.02176 0.139911 0.875 0.3125 0.875H1.02083C1.19342 0.875 1.33333 1.02176 1.33333 1.2028ZM10 1.2028C10 1.38383 9.86009 1.53059 9.6875 1.53059H2.97917C2.80658 1.53059 2.66667 1.38383 2.66667 1.2028C2.66667 1.02176 2.80658 0.875 2.97917 0.875H9.6875C9.86009 0.875 10 1.02176 10 1.2028ZM1.33333 4C1.33333 4.18104 1.19342 4.3278 1.02083 4.3278H0.3125C0.139911 4.3278 0 4.18104 0 4C0 3.81896 0.139911 3.6722 0.3125 3.6722H1.02083C1.19342 3.6722 1.33333 3.81896 1.33333 4ZM10 4C10 4.18104 9.86009 4.3278 9.6875 4.3278H2.97917C2.80658 4.3278 2.66667 4.18104 2.66667 4C2.66667 3.81896 2.80658 3.6722 2.97917 3.6722H9.6875C9.86009 3.6722 10 3.81896 10 4ZM1.33333 6.7972C1.33333 6.97824 1.19342 7.125 1.02083 7.125H0.3125C0.139911 7.125 0 6.97824 0 6.7972C0 6.61617 0.139911 6.46941 0.3125 6.46941H1.02083C1.19342 6.46941 1.33333 6.61617 1.33333 6.7972ZM10 6.7972C10 6.97824 9.86009 7.125 9.6875 7.125H2.97917C2.80658 7.125 2.66667 6.97824 2.66667 6.7972C2.66667 6.61617 2.80658 6.46941 2.97917 6.46941H9.6875C9.86009 6.46941 10 6.61617 10 6.7972Z" fill="#202124"/>
</svg>

<svg width="10" height="8" fill="none" xmlns="http://www.w3.org/2000/svg"><path fill-rule="evenodd" clip-rule="evenodd" d="M1.333 1.203a.32.32 0 0 1-.312.328H.313A.32.32 0 0 1 0 1.203.32.32 0 0 1 .313.875h.708a.32.32 0 0 1 .312.328Zm8.667 0a.32.32 0 0 1-.313.328H2.98a.32.32 0 0 1-.312-.328.32.32 0 0 1 .312-.328h6.708a.32.32 0 0 1 .313.328ZM1.333 4a.32.32 0 0 1-.312.328H.313A.32.32 0 0 1 0 4a.32.32 0 0 1 .313-.328h.708A.32.32 0 0 1 1.333 4ZM10 4a.32.32 0 0 1-.313.328H2.98A.32.32 0 0 1 2.667 4a.32.32 0 0 1 .312-.328h6.708A.32.32 0 0 1 10 4ZM1.333 6.797a.32.32 0 0 1-.312.328H.313A.32.32 0 0 1 0 6.797a.32.32 0 0 1 .313-.328h.708a.32.32 0 0 1 .312.328Zm8.667 0a.32.32 0 0 1-.313.328H2.98a.32.32 0 0 1-.312-.328.32.32 0 0 1 .312-.328h6.708a.32.32 0 0 1 .313.328Z" fill="#202124"/></svg>
